X:1
T:Allewander
L:1/16
Q:70
M:2/4
K:C
G4 |: c4 dcBc | e2G2 c2e2 | d2^c2 d2c2 | a2g2 a2g2 | c4 dcBc | e2G2 c2e2 | d2g2 ^f2a2 | g4G4 :|
|: e2G2 d2B2 | c2G2 A2G2 | F2D2 G2B2 | cBcd edef | e2G2 d2B2 | c2G2 A2G2 | F2D2 G2B2 | c4G4 :|